public/assets/icons/profile.svg

<svg width="20" height="20" viewBox="0 0 20 20" fill="none" xmlns="http://www.w3.org/2000/svg">
<path fill-rule="evenodd" clip-rule="evenodd" d="M14.4118 6.07596C14.4118 8.52348 12.4494 10.486 10.0002 10.486C7.55174 10.486 5.58851 8.52348 5.58851 6.07596C5.58851 3.62843 7.55174 1.66675 10.0002 1.66675C12.4494 1.66675 14.4118 3.62843 14.4118 6.07596ZM10.0002 18.3334C6.38547 18.3334 3.3335 17.7459 3.3335 15.4792C3.3335 13.2117 6.40465 12.645 10.0002 12.645C13.6157 12.645 16.6668 13.2325 16.6668 15.4992C16.6668 17.7667 13.5957 18.3334 10.0002 18.3334Z" fill="#7986AC"/>
</svg>

<?xml version="1.0"?>
<svg width="20" height="20" xmlns="http://www.w3.org/2000/svg" xmlns:svg="http://www.w3.org/2000/svg">
 <g class="layer">
  <title>Layer 1</title>
  <path clip-rule="evenodd" d="m14.41,6.08c0,2.44 -1.96,4.41 -4.41,4.41c-2.45,0 -4.41,-1.97 -4.41,-4.41c0,-2.45 1.96,-4.41 4.41,-4.41c2.45,0 4.41,1.96 4.41,4.41zm-4.41,12.25c-3.61,0 -6.67,-0.58 -6.67,-2.85c0,-2.27 3.07,-2.84 6.67,-2.84c3.62,0 6.67,0.59 6.67,2.86c0,2.27 -3.07,2.83 -6.67,2.83z" fill="#000000" fill-rule="evenodd" id="svg_1"/>
 </g>
</svg>
